X:1
T:Sitivit anima mea
T:Constantijn Huygens
T:Sitivit anima mea
T:Psalmus 42:3
T:©
T:©
T:©
T:©
C:Constantijn Huygens
Z:©
%%score 1 { ( 2 4 ) | 3 }
L:1/8
Q:1/4=52
M:4/4
K:F
V:1 treble nm="Soprano" snm="S"
V:2 treble nm="Organ" snm="Org."
V:4 treble 
V:3 bass 
V:1
 z2 z F F2 G2 | AA/A/ A4 AB | c2 F2 z c _e2- | ed d4 Bc | d4 c4 | z c f2 d4 | z ddd g2 c2 | %7
w: Si- ti- vit|a- ni- ma me- a, si-|ti- vit, si- ti-|* vit a- ni- ma|me- a|ad De- um,|ad De- um for- tem,|
[M:3/4] z G GG c2 | A4 d-d/4 (e/4d/4)c/4 | =B2 z c B2 |[M:2/4] c4 |[M:4/4] z2 z F F2 G2 | %12
w: ad De- um for-|tem, for- * tem _ _|_ et vi-|vum.|Si- ti- vit|
 AA/A/ A4 AB | c2 F2 z c _e2- | ed d4 Bc | d4 c4 | z c f2 d4 | z ddd g2 c2 |[M:3/4] z G GG c2 | %19
w: a- ni- ma me- a, si-|ti- vit, si- t-|_ vit a- ni- ma|me- a|ad De- um,|ad De- um for- tem,|ad De- um for-|
 A4 d-d/4 (e/4d/4)c/4 | =B2 z c B2 |[M:4/4] c4 G4 | E4 c4 | A4 z2 Ad | ^c3 d e4 | z2 A2 A2 A2 | %26
w: tem, for- * tem _ _|_ et vi-|vum. Quan-|do, quan-|do, quan- do|ve- ni- am|et ap- pa-|
 A4 A4 | B4 =B4 | z2 cc d3 f | _e>e d4 G2 | G4 G4 | G8 | G4 A4- | AAGF E2 c2- | ccBA G2 EF | %35
w: re- bo,|Quan- do,|quan- do, quan- do|ve- ni- am et|ap- pa-|re-|bo an-|* te fa- ci- em, an-|* te fa- ci- em, Quan- do|
 GG G2 z GAA | B4 A4 | z AAB cccc | c2 cc c4 | c8 | z4 G4 | E4 c4 | A4 z2 Ad | ^c3 d e4 | %44
w: ve- ni- am et ap- pa-|re- bo,|et ap- pa- re- bo an- te|fa- ci- em De-|i?|Quan-|do, quan-|do, quan- do|ve- ni- am|
 z2 A2 A2 A2 | A4 A4 | B4 =B4 | z2 cc d3 f | _e>e d4 G2 | G4 G4 | G8 | G4 A4- | AAGF E2 c2- | %53
w: et ap- pa-|re- bo,|Quan- do,|quan- do, quan- do|ve- ni- am et|ap- pa-|re-|bo an-|* te fa- ci- em, an-|
 ccBA G2 EF | GG G2 z GAA | B4 A4 | z AAB cccc | c2 cc c4 | c8 |] %59
w: * te fa- ci- em, Quan- do|ve- ni- am et ap- pa-|re- bo,|et ap- pa- re- bo an- te|fa- ci- em De-|i?|
V:2
 [A,-C]8 | C4 [DF-]4 | [CF-]8 | [DF]8- | [B,DF-]4 [A,CF]4 | [FA-]2 [Ad]2 [GB]4 | %6
 [GB]2 [FA]2 [EG-c-]4 |[M:3/4] [Gc-]6 | [FAc]4 [D-^FA]2 | G4 F2 |[M:2/4] E4 |[M:4/4] [A,-C]8 | %12
 C4 [DF-]4 | [CF-]8 | [DF]8- | [B,DF-]4 [A,CF]4 | [FA-]2 [Ad]2 [GB]4 | [GB]2 [FA]2 [EG-c-]4 | %18
[M:3/4] [Gc-]6 | [FAc]4 [D-^FA]2 | G4 F2 |[M:4/4] [CEG]8- | [CEG]8 | F8 | [EA-]8 | A8- | A8 | G8- | %28
 G8- | G8- | G8- | G8- | G4 F4- | FFED C2 A2- | AAGF E4- | E4 D4- | D8 | A8 | [CA]4 [CG-]2 [B,G]2 | %39
 [A,CF]8 | x8 | [CEG]8 | F8 | [EA-]8 | A8- | A8 | G8- | G8- | G8- | G8- | G8- | G4 F4- | %52
 FFED C2 A2- | AAGF E4- | E4 D4- | D8 | A8 | [CA]4 [CG-]2 [B,G]2 | [A,CF]8 |] %59
V:3
 F,8 | F,4 D,2 C,B,, | A,,4 A,4 | B,4 B,,4- | B,,4 F,4- | F,2 D,2 G,4- | G,2 F,2 E,4 | %7
[M:3/4] z2 z2 E,2 | F,4 ^F,2 | G,2 G,,4 |[M:2/4] [C,C]4 |[M:4/4] F,8 | F,4 D,2 C,B,, | A,,4 A,4 | %14
 B,4 B,,4- | B,,4 F,4- | F,2 D,2 G,4- | G,2 F,2 E,4 |[M:3/4] z2 z2 E,2 | F,4 ^F,2 | G,2 G,,4 | %21
[M:4/4] C,8 | C,8 | F,4 D,4 | A,8 | F,4 ^C,2 D,2 | A,,4 D,4 | G,,4 G,4 | C,4 =B,,4 | C,2 G,2 _E,4 | %30
 =B,,4 C,4 | G,,8 | C,4 F,4 | F,,2 G,,2 A,,4- | A,,2 B,,2 C,4 | C,4 G,2 ^F,2 | G,4 D,4 | %37
 D,2 C,B,, A,,2 G,,F,, | E,,2 F,,2 C,4 | F,,8 | z8 | C,8 | F,4 D,4 | A,8 | F,4 ^C,2 D,2 | %45
 A,,4 D,4 | G,,4 G,4 | C,4 =B,,4 | C,2 G,2 _E,4 | =B,,4 C,4 | G,,8 | C,4 F,4 | F,,2 G,,2 A,,4- | %53
 A,,2 B,,2 C,4 | C,4 G,2 ^F,2 | G,4 D,4 | D,2 C,B,, A,,2 G,,F,, | E,,2 F,,2 C,4 | F,,8 |] %59
V:4
 x8 | A,8 | x8 | x8 | x8 | x8 | x8 |[M:3/4] x6 | x6 | D2 E2 D2 |[M:2/4] C4 |[M:4/4] x8 | A,8 | x8 | %14
 x8 | x8 | x8 | x8 |[M:3/4] x6 | x6 | D2 E2 D2 |[M:4/4] x8 | x8 | [A,-C]4 [A,D]4 | A,3 =B, ^C4 | %25
 D4 E2 F2 | E4 ^F4 | D4 D4 | [CE]4 [=B,D]4 | c4 C4 | D4 _E4 | [B,D]4 [=B,D]4 | [CE]4 C4- | C8- | %34
 C8 | C4 B,2 A,2 | G,4 ^F,4 | F4 E2 D2 | x8 | x8 | [G,B,D]8 | x8 | [A,-C]4 [A,D]4 | A,3 =B, ^C4 | %44
 D4 E2 F2 | E4 ^F4 | D4 D4 | [CE]4 [=B,D]4 | c4 C4 | D4 _E4 | [B,D]4 [=B,D]4 | [CE]4 C4- | C8- | %53
 C8 | C4 B,2 A,2 | G,4 ^F,4 | F4 E2 D2 | x8 | x8 |] %59

